app/img/advantages-2.svg

<svg width="99" height="120" viewBox="0 0 99 120" fill="none" xmlns="http://www.w3.org/2000/svg">
<path d="M76.2841 20.851L76.4542 20.3819C79.8086 21.5981 83.342 22.4649 86.957 22.9591L86.8894 23.4535L86.9571 22.9591C92.7343 23.7496 96.7896 29.4864 96.0911 35.6788C95.2084 43.5058 93.5915 55.1971 90.9019 66.4189L90.4166 66.3026L90.9019 66.4189C87.977 78.6208 84.5263 87.2045 80.6029 91.8389C72.679 101.198 62.7546 109.484 55.8342 114.781C52.0247 117.697 46.8981 117.698 43.0894 114.781C36.169 109.484 26.2446 101.198 18.3207 91.8389C14.3973 87.2045 10.9457 78.6209 8.0217 66.4189C5.33206 55.1971 3.71518 43.5058 2.83169 35.6789L2.83167 35.6788C2.13406 29.4864 6.18838 23.7496 11.9665 22.9591L11.9666 22.9591C27.5874 20.8237 37.9429 12.3413 43.8862 5.59105L43.8863 5.59097C45.3426 3.93772 47.3239 3.01612 49.4614 3.01612C51.5988 3.01612 53.58 3.93773 55.0372 5.59085L55.0374 5.59107C59.3181 10.4533 64.2635 14.415 69.7353 17.3691L69.7355 17.3692C70.2638 17.6548 70.9355 17.4415 71.2265 16.812C71.5254 16.1638 71.2676 15.4014 70.7145 15.1031L70.7143 15.1029C65.4724 12.2726 60.7389 8.47808 56.6434 3.82756L56.6434 3.82752C54.7478 1.67455 52.1984 0.499024 49.4614 0.499024C46.7243 0.499024 44.1749 1.67455 42.2793 3.82752L41.9048 3.49775L42.2793 3.82753C36.5986 10.2793 26.675 18.4123 11.6936 20.4603C4.75365 21.4092 -0.26699 28.3477 0.595193 35.9926C1.35133 42.6967 2.87992 54.1598 5.4755 65.4275C6.77331 71.0614 8.33582 76.6373 10.1982 81.5408C12.0631 86.4507 14.2168 90.6543 16.6832 93.5676C24.7339 103.077 34.7896 111.479 41.816 116.858C44.1062 118.611 46.7849 119.485 49.4612 119.485L76.2841 20.851ZM76.2841 20.851L76.4542 20.3819C75.8788 20.1733 75.5214 19.4662 75.7361 18.7734C75.9465 18.0952 76.5929 17.7863 77.1481 17.9872M76.2841 20.851L77.1481 17.9872M40.1147 55.2264L40.1145 55.2262C39.5592 54.7373 38.3149 53.9715 36.8891 53.8223C35.5103 53.6781 33.918 54.1018 32.547 56.0597C31.16 58.0407 31.0862 59.8618 31.4796 61.3107C31.8797 62.7841 32.7704 63.8926 33.3206 64.377C33.3206 64.3771 33.3207 64.3771 33.3207 64.3772L38.0359 68.5238L38.036 68.5239C38.5081 68.9392 39.1984 68.8723 39.5949 68.345C40.0087 67.7948 39.9249 66.983 39.4296 66.5463L40.1147 55.2264ZM40.1147 55.2264L48.7442 62.8169L49.108 63.1368L49.4386 62.7828L62.6886 48.594C62.6886 48.594 62.6886 48.594 62.6886 48.594C64.8026 46.3307 68.2108 46.3478 70.3053 48.6327C72.421 50.9408 72.4042 54.6944 70.2695 56.9808L53.2525 75.2038L53.6173 75.5444L53.2525 75.2038C52.2298 76.2992 50.884 76.8936 49.4608 76.8936C48.2334 76.8936 47.0267 76.4318 46.0651 75.5862C46.0651 75.5862 46.0651 75.5862 46.065 75.5862L43.3636 73.2098L43.3634 73.2096C42.8675 72.7739 42.7836 71.9615 43.1972 71.4121C43.5949 70.8851 44.2848 70.818 44.7574 71.2333L47.456 73.6062C47.4564 73.6065 47.4567 73.6069 47.4571 73.6072C47.8738 73.9787 48.5204 74.3416 49.2794 74.4018C50.0631 74.4639 50.9156 74.1979 51.6883 73.3927L51.6929 73.3877L68.7107 55.1639L68.7107 55.1638C69.9268 53.8611 69.9366 51.747 68.7316 50.4326C67.5057 49.0956 65.4863 49.0838 64.2483 50.41C64.2482 50.4101 64.2482 50.4101 64.2482 50.4101L49.9608 65.7092L49.9607 65.7093C49.5522 66.147 48.9238 66.1766 48.4846 65.7904C48.4845 65.7904 48.4845 65.7904 48.4845 65.7904L38.7213 57.2032L40.1147 55.2264ZM77.1481 17.9872C80.3671 19.1538 83.7593 19.986 87.2292 20.4603M77.1481 17.9872L87.2292 20.4603M87.2292 20.4603C94.1691 21.4092 99.1897 28.3477 98.3275 35.9926C97.5714 42.6968 96.043 54.1598 93.4475 65.4275C92.1498 71.0614 90.5873 76.6373 88.7249 81.5407C86.86 86.4507 84.7062 90.6543 82.2395 93.5676C74.1889 103.077 64.1332 111.479 57.1067 116.858C54.8166 118.611 52.1371 119.484 49.4614 119.485L87.2292 20.4603ZM34.7143 62.3995L39.4293 66.546L38.721 57.203C38.4015 56.9217 37.7195 56.4663 36.8918 56.3671C36.468 56.3163 36.0016 56.3589 35.5356 56.5715C35.0698 56.7839 34.6342 57.1525 34.2505 57.7078L34.2504 57.7079C33.4824 58.8198 33.4168 59.8612 33.6544 60.7035C33.8849 61.5202 34.3882 62.1123 34.714 62.3992L34.7143 62.3995Z" fill="white" stroke="white" stroke-width="0.998049"/>
</svg>

<svg width="99" height="120" viewBox="0 0 99 120" fill="none" xmlns="http://www.w3.org/2000/svg"><path d="M76.284 20.851l.17-.47a51.214 51.214 0 0 0 10.503 2.578l-.068.494.068-.494c5.777.79 9.833 6.527 9.134 12.72-.883 7.827-2.5 19.518-5.19 30.74l-.484-.116.485.116c-2.925 12.202-6.376 20.785-10.3 25.42-7.923 9.359-17.847 17.645-24.768 22.942-3.81 2.916-8.936 2.917-12.745 0-6.92-5.297-16.844-13.583-24.768-22.942-3.924-4.635-7.375-13.218-10.3-25.42-2.689-11.222-4.306-22.913-5.19-30.74-.697-6.193 3.357-11.93 9.136-12.72 15.62-2.135 25.976-10.618 31.92-17.368 1.456-1.653 3.437-2.575 5.574-2.575 2.138 0 4.119.922 5.576 2.575 4.281 4.862 9.226 8.824 14.698 11.778.529.286 1.2.073 1.492-.557.298-.648.04-1.41-.513-1.709-5.242-2.83-9.975-6.625-14.07-11.275C54.747 1.675 52.197.499 49.46.499s-5.286 1.176-7.182 3.329l-.374-.33.374.33C36.6 10.279 26.675 18.412 11.694 20.46 4.754 21.41-.267 28.348.595 35.993c.756 6.704 2.285 18.167 4.88 29.434 1.298 5.634 2.86 11.21 4.723 16.114 1.865 4.91 4.019 9.113 6.485 12.027 8.05 9.509 18.107 17.911 25.133 23.29 2.29 1.753 4.969 2.627 7.645 2.627l26.823-98.634zm0 0l.17-.47c-.575-.208-.933-.915-.718-1.608.21-.678.857-.987 1.412-.786m-.864 2.864l.864-2.864m-37.033 37.24c-.556-.49-1.8-1.255-3.226-1.405-1.379-.144-2.971.28-4.342 2.238-1.387 1.98-1.46 3.802-1.067 5.25.4 1.474 1.29 2.583 1.84 3.067l4.716 4.147c.472.415 1.162.348 1.559-.179.414-.55.33-1.362-.165-1.799l.685-11.32zm0 0l8.63 7.59.363.32.33-.354 13.25-14.189c2.115-2.263 5.523-2.246 7.617.039 2.116 2.308 2.1 6.061-.036 8.348L53.252 75.204l.365.34-.364-.34c-1.023 1.095-2.369 1.69-3.792 1.69a5.154 5.154 0 0 1-3.396-1.308l-2.701-2.376c-.496-.436-.58-1.248-.167-1.798.398-.527 1.088-.594 1.56-.179l2.699 2.373.001.001c.417.372 1.063.735 1.822.795.784.062 1.637-.204 2.41-1.01l.004-.004L68.71 55.164c1.216-1.303 1.226-3.417.02-4.731-1.225-1.337-3.245-1.35-4.483-.023L49.96 65.71c-.409.437-1.037.467-1.476.08l-9.764-8.587 1.394-1.977zm37.033-37.24A49.19 49.19 0 0 0 87.23 20.46m-10.08-2.473l10.08 2.473m0 0c6.94.95 11.96 7.888 11.099 15.533-.757 6.704-2.285 18.167-4.88 29.434-1.298 5.634-2.86 11.21-4.723 16.114-1.865 4.91-4.019 9.113-6.485 12.027-8.051 9.509-18.107 17.911-25.133 23.29-2.29 1.753-4.97 2.626-7.646 2.627L87.23 20.46zM34.714 62.4l4.715 4.146-.708-9.343c-.32-.281-1.002-.737-1.83-.836a2.51 2.51 0 0 0-1.355.205c-.466.212-.902.58-1.285 1.136-.769 1.112-.834 2.153-.597 2.995.23.817.734 1.41 1.06 1.696z" fill="#fff" stroke="#fff" stroke-width=".998"/></svg>
